X: 1
T:Dr MacInnes's Fancy  "http://freespace.virgin.net/michael.clarke2/inde
M:C|
L:1/8
Q:80
C:D. MacLeod
S:Hornpipe
K:HP
|: e/2{g}G/2|
{d}A{d}B/2{e}G/2{d}A{gef}e/2G/2|
{g}A/2{d}B/2{g}A/2{d}G/2{g}A{g}B/4d3/4|  !
{gef}e{g}d3/4e/4{A}e3/4f/4g3/4f/4|
{gef}e3/4d/4{gBd}B3/4A/4{g}Ge/2{g}G/2| |
{d}A{d}B/2{e}G/2{d}A{gef}e/2A/2|  !
{g}A/2{d}B/2{g}A/2{d}G/2{g}A{g}B/4d3/4|
{g}e/2d/2{G}d/2e/2{A}e/2f/2g/2d/2|
{gBd}B{e}A{GAG}A:| |:  !
{g}B/4d3/4|
{gef}ea/2g/2a/2e/2{A}e/2a/2|
g/2e/2{gde}d/2B/2{Gdc}d{g}B/4d3/4|  !
{g}e/2A/2{gAGAG}Aa/2A/2{gAGAG}A|
{gef}e3/4d/4{gBd}B3/4A/4{g}G{g}B/4d3/4| |
{g}e/2a/2{g}a/2g/2a/2e/2{A}e/2a/2|  !
g/2e/2{gde}d/2B/2{Gdc}d{g}B/4d3/4|
{g}e/2d/2{G}d/2e/2{A}e/2f/2g/2d/2|
{gBd}B{e}A{GAG}A:| |:  !
{gef}e|
{gAGAG}A{e}A{g}G/2{d}A/2{e}A/2{d}B/2|
{g}A/2e/2{A}e/2d/2{g}e{gde}d3/4B/4|  !
{gAGAG}A{e}A{g}G/2{d}A/2{e}A/2{d}B/2|
{gef}e3/4d/4{gBd}B3/4A/4{g}G{gef}e| |
{g}A/2{d}A/2{e}A/2{d}B/2{g}G/2{d}A/2{e}A/2{d}B/2|  !
{g}A/2e/2{A}e/2d/2{gef}e{g}B/4d3/4|
{g}e/2d/2{G}d/2e/2{A}e/2f/2g/2d/2|
{gBd}B{e}A{GAG}A:| |:  !
a/2g/2|
a/2e/2{A}e/2f/2{gf}ga/2g/2|
{a}f/4a3/4g3/4e/4{Gdc}d{g}B/4d3/4|  !
{gef}e{g}d3/4e/4{A}e/2f/2g/2f/2|
{gef}e3/4d/4{gBd}B3/4A/4{g}G|1 a/2g/2|1 |
a/2e/2{A}e/2f/2{gf}ga/2g/2|  !
{a}f/4a3/4g3/4e/4{Gdc}d{g}B/4d3/4|
{g}e/2d/2{G}d/2e/2{A}e/2f/2g/2d/2|
{gBd}B{e}A{GAG}A:|2  !
e|
{g}A/2{d}A/2{e}A/2{d}B/2{g}G/2{d}A/2{e}A/2{d}B/2|
{g}A/2e/2{A}e/2d/2{gef}e{g}B/4d3/4|
{g}e/2d/2{G}d/2e/2{A}e/2f/2g/2d/2|  !
{gBd}B{e}A{GAG}A|] |
